dist/svg/firefox.svg

<svg width="16" height="16" viewBox="0 0 16 16" fill="rgb(34, 34, 34)" xmlns="http://www.w3.org/2000/svg"><title>firefox</title><path d="M15.696 7.31198C15.673 7.16698 15.651 7.08298 15.651 7.08298C15.651 7.08298 15.593 7.14798 15.499 7.27398C15.467 6.89698 15.401 6.54898 15.302 6.21498L15.311 6.25198C15.177 5.78498 15.017 5.38398 14.824 5.00298L14.842 5.04298C14.707 4.75998 14.564 4.51798 14.402 4.29098L14.412 4.30598C14.354 4.21898 14.292 4.13098 14.231 4.05098C13.947 3.58598 13.617 3.29798 13.239 2.75798C13.004 2.37098 12.83 1.91898 12.745 1.43698L12.741 1.41298C12.648 1.65998 12.565 1.95598 12.507 2.26098L12.502 2.29598C12.111 1.90198 11.775 1.62398 11.568 1.43298C10.566 0.488976 10.682 0.000976562 10.682 0.000976562C10.682 0.000976562 8.79798 2.10498 9.61198 4.29698C9.90598 5.05898 10.389 5.69298 11.004 6.16098L11.014 6.16898C11.95 6.75498 12.675 7.60298 13.093 8.60998L13.106 8.64498C12.735 7.94898 12.199 7.38398 11.548 6.99098L11.529 6.97998C11.719 7.41798 11.83 7.92898 11.83 8.46498C11.83 8.47098 11.83 8.47798 11.83 8.48398V8.48298C11.829 10.454 10.231 12.052 8.25898 12.052C8.25798 12.052 8.25598 12.052 8.25498 12.052C8.25198 12.052 8.24798 12.052 8.24498 12.052C7.96798 12.052 7.69798 12.019 7.43998 11.957L7.46298 11.962C7.12998 11.898 6.83298 11.794 6.55898 11.653L6.57798 11.662C6.15698 11.404 5.80398 11.077 5.52498 10.693L5.51798 10.683L5.51198 10.673L5.57698 10.696C5.70198 10.741 5.85398 10.783 6.00998 10.813L6.02898 10.816C6.20498 10.855 6.40698 10.878 6.61498 10.878C7.05498 10.878 7.47198 10.776 7.84298 10.595L7.82598 10.602C8.39198 10.288 8.73098 10.056 9.00898 10.149H9.01598C9.28798 10.236 9.50098 9.97098 9.30698 9.69598C9.03398 9.34598 8.61198 9.12298 8.13798 9.12298C8.04598 9.12298 7.95598 9.13098 7.86898 9.14698L7.87798 9.14598C7.31198 9.22698 6.79498 9.63098 6.05498 9.23998C6.00698 9.21398 5.96098 9.18798 5.91598 9.15898C5.86398 9.12998 6.07398 9.20098 6.02598 9.16898C5.84598 9.07798 5.69398 8.98498 5.54898 8.88298L5.56098 8.89098C5.55098 8.88098 5.67398 8.92698 5.66098 8.91698C5.46798 8.78398 5.30698 8.62098 5.17998 8.43198L5.17598 8.42598C5.10698 8.30398 5.06698 8.15898 5.06698 8.00398C5.06698 7.87498 5.09498 7.75198 5.14598 7.64098L5.14398 7.64598C5.21298 7.52298 5.31598 7.42598 5.44098 7.36698L5.44498 7.36498C5.54198 7.41298 5.59998 7.44898 5.59998 7.44898C5.59998 7.44898 5.55798 7.36798 5.53198 7.32598C5.54198 7.32298 5.54798 7.32598 5.55798 7.31998C5.64198 7.35598 5.82598 7.44898 5.92598 7.50698C5.99398 7.54398 6.05098 7.59498 6.09298 7.65698L6.09398 7.65898C6.09398 7.65898 6.12598 7.64298 6.10398 7.57198C6.06798 7.48298 6.00798 7.40998 5.93098 7.35998L5.92898 7.35898H5.93498C6.01698 7.40298 6.08698 7.44698 6.15298 7.49498L6.14798 7.49098C6.20198 7.36998 6.23298 7.22898 6.23298 7.08098C6.23298 7.06598 6.23298 7.05098 6.23198 7.03698V7.03898C6.23298 7.02598 6.23298 7.01198 6.23298 6.99698C6.23298 6.92198 6.21898 6.84998 6.19498 6.78298L6.19598 6.78698C6.16998 6.73498 6.21198 6.71598 6.25698 6.77098C6.24798 6.72598 6.23498 6.68598 6.21698 6.64798C6.22998 6.62998 6.24398 6.61398 6.25698 6.59898L6.25598 6.59998C6.28798 6.56698 6.32398 6.53898 6.36298 6.51398L6.36598 6.51298C6.57498 6.37998 6.81598 6.25398 7.06798 6.14998L7.09998 6.13798C7.30698 6.04698 7.47798 5.97998 7.51398 5.95698C7.75198 5.79998 7.92298 5.55998 7.98798 5.27898L7.98898 5.27198C7.99198 5.24298 7.99498 5.21398 7.99898 5.18098V5.13298C7.96998 5.01998 7.77598 4.93598 6.75798 4.83898C6.39698 4.77998 6.11298 4.50998 6.03198 4.16298L6.03098 4.15698V4.15998C6.01798 4.19598 6.00198 4.23398 5.98898 4.27298C6.00198 4.23398 6.01498 4.19898 6.03098 4.15998V4.15398C6.23198 3.63798 6.57698 3.21398 7.01698 2.92198L7.02698 2.91598C7.05298 2.89298 6.92398 2.92198 6.94898 2.89998C7.01798 2.86498 7.10598 2.82698 7.19498 2.79298L7.21398 2.78698C7.25898 2.76798 7.01998 2.67698 6.80698 2.69998C6.66898 2.70798 6.53998 2.74098 6.42198 2.79298L6.42898 2.78998C6.48098 2.74798 6.62898 2.68998 6.59398 2.68998C6.30298 2.74798 6.04398 2.84898 5.80998 2.98698L5.82098 2.98098C5.82098 2.97898 5.82098 2.97698 5.82098 2.97398C5.82098 2.94998 5.82698 2.92798 5.83798 2.90898V2.90998C5.64298 2.99498 5.47998 3.12198 5.35498 3.27898L5.35298 3.28198C5.35698 3.25598 5.35898 3.22598 5.35898 3.19498C5.26998 3.26098 5.19198 3.33298 5.12498 3.41498L5.12298 3.41698L5.11998 3.41998C4.77998 3.28498 4.38598 3.20698 3.97498 3.20698C3.75598 3.20698 3.54198 3.22898 3.33498 3.27098L3.35598 3.26798L3.34998 3.26498H3.35598C3.23298 3.16598 3.12898 3.04898 3.04598 2.91798L3.04298 2.91198L3.03698 2.91498L3.02398 2.90898C2.98498 2.85098 2.94598 2.78598 2.90398 2.71498C2.87498 2.66298 2.84598 2.60498 2.81698 2.54698L2.81098 2.54098C2.79798 2.54098 2.79198 2.59598 2.78198 2.58298V2.57998C2.69098 2.35098 2.63898 2.08498 2.63898 1.80698C2.63898 1.78098 2.63898 1.75498 2.63998 1.72898V1.73298L2.63398 1.73598C2.46998 1.84998 2.34498 2.01098 2.27698 2.19798L2.27498 2.20498C2.24598 2.27298 2.22298 2.31198 2.20398 2.34998V2.33398C2.20698 2.29798 2.22298 2.22698 2.21998 2.23398C2.21698 2.23898 2.21398 2.24298 2.20998 2.24698C2.16098 2.30098 2.11898 2.36298 2.08598 2.42998L2.08398 2.43498C2.05798 2.48798 2.03298 2.55098 2.01198 2.61598L2.00898 2.62598C2.00598 2.63598 2.00898 2.61598 2.00898 2.59398C2.00898 2.57198 2.01198 2.52898 2.00898 2.53898L1.99898 2.56198C1.79398 3.00698 1.65098 3.52298 1.59998 4.06498L1.59898 4.08398C1.58798 4.15198 1.58198 4.22898 1.58198 4.30898C1.58198 4.32398 1.58198 4.33998 1.58298 4.35498V4.35298V4.35898C1.43398 4.52198 1.29798 4.70298 1.18098 4.89598L1.17198 4.91098C0.803981 5.52098 0.506981 6.22798 0.316981 6.97698L0.304981 7.03098C0.447981 6.71898 0.601981 6.45298 0.777981 6.20298L0.766981 6.21898C0.435981 7.03498 0.242981 7.98098 0.242981 8.97198C0.312981 8.64498 0.390981 8.37198 0.483981 8.10498L0.468981 8.15498C0.462981 8.25798 0.459981 8.37898 0.459981 8.49998C0.459981 9.55098 0.693981 10.547 1.11398 11.439L1.09598 11.397C1.74098 12.821 2.76798 13.976 4.04698 14.762L4.07998 14.781C4.57998 15.123 5.15698 15.407 5.77198 15.602L5.81898 15.615C5.89998 15.644 5.98398 15.673 6.06798 15.702C6.04198 15.692 6.01598 15.679 5.98998 15.67C6.66498 15.881 7.44098 16.002 8.24598 16.003C10.951 16.003 11.844 14.972 11.924 14.872C12.056 14.753 12.163 14.61 12.24 14.45L12.244 14.442C12.296 14.419 12.347 14.397 12.402 14.374L12.434 14.358L12.495 14.329C12.93 14.122 13.305 13.884 13.646 13.606L13.636 13.614C14.153 13.24 14.53 12.703 14.695 12.078L14.699 12.059C14.747 11.948 14.775 11.819 14.775 11.684C14.775 11.561 14.752 11.443 14.71 11.335L14.712 11.342C14.741 11.297 14.767 11.251 14.799 11.203C15.357 10.321 15.707 9.25798 15.755 8.11598V8.10298V8.01298C15.755 8.00998 15.755 8.00498 15.755 8.00098C15.755 7.75798 15.733 7.52098 15.69 7.29098L15.694 7.31498L15.696 7.31198Z" fill="rgb(34, 34, 34)" fill-opacity="1.00"/></svg>

<!-- Generated by Trend Micro Style Portal -->
<svg version="1.1" xmlns="http://www.w3.org/2000/svg" width="16" height="16" viewBox="0 0 16 16">
  <title>firefox</title>
  <path fill="rgb(34,34,34)" d="M15.696 7.312c-0.023-0.145-0.045-0.229-0.045-0.229s-0.058 0.065-0.152 0.191c-0.032-0.377-0.098-0.725-0.197-1.059l0.009 0.037c-0.134-0.467-0.294-0.868-0.487-1.249l0.018 0.040c-0.135-0.283-0.278-0.525-0.44-0.752l0.010 0.015c-0.058-0.087-0.12-0.175-0.181-0.255-0.284-0.465-0.614-0.753-0.992-1.293-0.235-0.387-0.409-0.839-0.494-1.321l-0.004-0.024c-0.093 0.247-0.176 0.543-0.234 0.848l-0.005 0.035c-0.391-0.394-0.727-0.672-0.934-0.863-1.002-0.944-0.886-1.432-0.886-1.432s-1.884 2.104-1.070 4.296c0.294 0.762 0.777 1.396 1.392 1.864l0.010 0.008c0.936 0.586 1.661 1.434 2.079 2.441l0.013 0.035c-0.371-0.696-0.907-1.261-1.558-1.654l-0.019-0.011c0.19 0.438 0.301 0.949 0.301 1.485 0 0.006-0 0.013-0 0.019v-0.001c-0.001 1.971-1.599 3.569-3.571 3.569-0.001 0-0.003 0-0.004 0h0c-0.003 0-0.007 0-0.010 0-0.277 0-0.547-0.033-0.805-0.095l0.023 0.005c-0.333-0.064-0.63-0.168-0.904-0.309l0.019 0.009c-0.421-0.258-0.774-0.585-1.053-0.969l-0.007-0.010-0.006-0.010 0.065 0.023c0.125 0.045 0.277 0.087 0.433 0.117l0.019 0.003c0.176 0.039 0.378 0.062 0.586 0.062 0.44 0 0.857-0.102 1.228-0.283l-0.017 0.007c0.566-0.314 0.905-0.546 1.183-0.453h0.007c0.272 0.087 0.485-0.178 0.291-0.453-0.273-0.35-0.695-0.573-1.169-0.573-0.092 0-0.182 0.008-0.269 0.024l0.009-0.001c-0.566 0.081-1.083 0.485-1.823 0.094-0.048-0.026-0.094-0.052-0.139-0.081-0.052-0.029 0.158 0.042 0.11 0.010-0.18-0.091-0.332-0.184-0.477-0.286l0.012 0.008c-0.010-0.010 0.113 0.036 0.1 0.026-0.193-0.133-0.354-0.296-0.481-0.485l-0.004-0.006c-0.069-0.122-0.109-0.267-0.109-0.422 0-0.129 0.028-0.252 0.079-0.363l-0.002 0.005c0.069-0.123 0.172-0.22 0.297-0.279l0.004-0.002c0.097 0.048 0.155 0.084 0.155 0.084s-0.042-0.081-0.068-0.123c0.010-0.003 0.016 0 0.026-0.006 0.084 0.036 0.268 0.129 0.368 0.187 0.068 0.037 0.125 0.088 0.167 0.15l0.001 0.002s0.032-0.016 0.010-0.087c-0.036-0.089-0.096-0.162-0.173-0.212l-0.002-0.001h0.006c0.082 0.044 0.152 0.088 0.218 0.136l-0.005-0.004c0.054-0.121 0.085-0.262 0.085-0.41 0-0.015-0-0.030-0.001-0.044l0 0.002c0.001-0.013 0.001-0.027 0.001-0.042 0-0.075-0.014-0.147-0.038-0.214l0.001 0.004c-0.026-0.052 0.016-0.071 0.061-0.016-0.009-0.045-0.022-0.085-0.040-0.123l0.001 0.003v-0.003c0.013-0.018 0.026-0.034 0.039-0.049l-0.001 0.001c0.032-0.033 0.068-0.061 0.107-0.086l0.003-0.001c0.209-0.133 0.45-0.259 0.702-0.363l0.032-0.012c0.207-0.091 0.378-0.158 0.414-0.181 0.238-0.157 0.409-0.397 0.474-0.678l0.001-0.007c0.003-0.029 0.006-0.058 0.010-0.091v-0.048c-0.029-0.113-0.223-0.197-1.241-0.294-0.361-0.059-0.645-0.329-0.726-0.676l-0.001-0.006v0.003c-0.013 0.036-0.029 0.074-0.042 0.113 0.013-0.039 0.026-0.074 0.042-0.113v-0.006c0.201-0.516 0.546-0.94 0.986-1.232l0.010-0.006c0.026-0.023-0.103 0.006-0.078-0.016 0.069-0.035 0.157-0.073 0.246-0.107l0.019-0.006c0.045-0.019-0.194-0.11-0.407-0.087-0.138 0.008-0.267 0.041-0.385 0.093l0.007-0.003c0.052-0.042 0.2-0.1 0.165-0.1-0.291 0.058-0.55 0.159-0.784 0.297l0.011-0.006c-0-0.002-0-0.004-0-0.007 0-0.024 0.006-0.046 0.017-0.065l-0 0.001c-0.195 0.085-0.358 0.212-0.483 0.369l-0.002 0.003c0.004-0.026 0.006-0.056 0.006-0.087l0-0.001c-0.089 0.066-0.167 0.139-0.234 0.221l-0.002 0.002-0.003 0.003c-0.34-0.135-0.734-0.213-1.145-0.213-0.219 0-0.433 0.022-0.64 0.064l0.021-0.003-0.006-0.003h0.006c-0.123-0.099-0.227-0.216-0.31-0.347l-0.003-0.006-0.006 0.003-0.013-0.006c-0.039-0.058-0.078-0.123-0.12-0.194-0.029-0.052-0.058-0.11-0.087-0.168l-0.006-0.006c-0.013 0-0.019 0.055-0.029 0.042v-0.003c-0.091-0.229-0.143-0.495-0.143-0.773 0-0.026 0-0.052 0.001-0.078l-0 0.004-0.006 0.003c-0.164 0.114-0.289 0.275-0.357 0.462l-0.002 0.007c-0.029 0.068-0.052 0.107-0.071 0.145v-0.016c0.003-0.036 0.019-0.107 0.016-0.1-0.003 0.005-0.006 0.009-0.010 0.013l-0 0c-0.049 0.054-0.091 0.116-0.124 0.183l-0.002 0.005c-0.026 0.053-0.051 0.116-0.072 0.181l-0.003 0.010c-0.003 0.010 0-0.010 0-0.032s0.003-0.065 0-0.055l-0.010 0.023c-0.205 0.445-0.348 0.961-0.399 1.503l-0.001 0.019c-0.011 0.068-0.017 0.145-0.017 0.225 0 0.015 0 0.031 0.001 0.046l-0-0.002v0.006c-0.149 0.163-0.285 0.344-0.402 0.537l-0.009 0.015c-0.368 0.61-0.665 1.317-0.855 2.066l-0.012 0.054c0.143-0.312 0.297-0.578 0.473-0.828l-0.011 0.016c-0.331 0.816-0.524 1.762-0.524 2.753 0 0 0 0.001 0 0.001v-0c0.070-0.327 0.148-0.601 0.241-0.868l-0.015 0.050c-0.006 0.103-0.009 0.224-0.009 0.345 0 1.051 0.234 2.047 0.654 2.939l-0.018-0.042c0.645 1.424 1.672 2.579 2.951 3.365l0.033 0.019c0.5 0.342 1.077 0.626 1.692 0.821l0.047 0.013c0.081 0.029 0.165 0.058 0.249 0.087-0.026-0.010-0.052-0.023-0.078-0.032 0.675 0.211 1.451 0.332 2.256 0.333h0c2.705 0 3.598-1.031 3.678-1.131 0.132-0.119 0.239-0.262 0.316-0.422l0.004-0.008c0.052-0.023 0.103-0.045 0.158-0.068l0.032-0.016 0.061-0.029c0.435-0.207 0.81-0.445 1.151-0.723l-0.010 0.008c0.517-0.374 0.894-0.911 1.059-1.536l0.004-0.019c0.048-0.111 0.076-0.24 0.076-0.375 0-0.123-0.023-0.241-0.065-0.349l0.002 0.007c0.029-0.045 0.055-0.091 0.087-0.139 0.558-0.882 0.908-1.945 0.956-3.087l0-0.013v-0.090c0-0.003 0-0.008 0-0.012 0-0.243-0.022-0.48-0.065-0.71l0.004 0.024z"></path>
</svg>
